site/_includes/icons/logo-lockup.svg

<svg width="202" height="36" viewBox="40 2 202 36" fill="none" xmlns="http://www.w3.org/2000/svg">
<path d="M60.998 28.352C58.6807 28.352 56.7373 27.5673 55.168 25.998C53.5987 24.4287 52.814 22.4707 52.814 20.124C52.814 17.7773 53.5987 15.8193 55.168 14.25C56.7373 12.6807 58.6807 11.896 60.998 11.896C63.374 11.896 65.3027 12.754 66.784 14.47L65.376 15.834C64.3053 14.4993 62.846 13.832 60.998 13.832C59.282 13.832 57.83 14.4113 56.642 15.57C55.4687 16.7287 54.882 18.2467 54.882 20.124C54.882 22.0013 55.4687 23.5193 56.642 24.678C57.83 25.8367 59.282 26.416 60.998 26.416C62.89 26.416 64.5033 25.6533 65.838 24.128L67.246 25.536C66.5273 26.4013 65.6253 27.0907 64.54 27.604C63.4547 28.1027 62.274 28.352 60.998 28.352ZM71.0685 12.248V17.22L70.9805 18.716H71.0685C71.3618 18.2027 71.8238 17.77 72.4545 17.418C73.0852 17.0513 73.7598 16.868 74.4785 16.868C75.8132 16.868 76.8325 17.2787 77.5365 18.1C78.2405 18.9213 78.5925 20.0213 78.5925 21.4V28H76.5685V21.708C76.5685 19.7133 75.6812 18.716 73.9065 18.716C73.0705 18.716 72.3885 19.0533 71.8605 19.728C71.3325 20.388 71.0685 21.158 71.0685 22.038V28H69.0445V12.248H71.0685ZM82.9923 28H80.9683V17.22H82.9043V18.98H82.9923C83.1977 18.3933 83.6157 17.9093 84.2463 17.528C84.8917 17.1467 85.515 16.956 86.1163 16.956C86.7177 16.956 87.2237 17.044 87.6343 17.22L86.8643 19.112C86.6003 19.0093 86.241 18.958 85.7863 18.958C85.053 18.958 84.4003 19.2513 83.8283 19.838C83.271 20.41 82.9923 21.1653 82.9923 22.104V28ZM89.2405 18.518C90.2818 17.418 91.6092 16.868 93.2225 16.868C94.8358 16.868 96.1632 17.418 97.2045 18.518C98.2458 19.6033 98.7665 20.9673 98.7665 22.61C98.7665 24.2527 98.2458 25.624 97.2045 26.724C96.1632 27.8093 94.8358 28.352 93.2225 28.352C91.6092 28.352 90.2818 27.8093 89.2405 26.724C88.1992 25.624 87.6785 24.2527 87.6785 22.61C87.6785 20.9673 88.1992 19.6033 89.2405 18.518ZM90.7365 25.448C91.4405 26.152 92.2692 26.504 93.2225 26.504C94.1758 26.504 94.9972 26.152 95.6865 25.448C96.3905 24.7293 96.7425 23.7833 96.7425 22.61C96.7425 21.4367 96.3905 20.498 95.6865 19.794C94.9972 19.0753 94.1758 18.716 93.2225 18.716C92.2692 18.716 91.4405 19.0753 90.7365 19.794C90.0472 20.498 89.7025 21.4367 89.7025 22.61C89.7025 23.7833 90.0472 24.7293 90.7365 25.448ZM100.39 28V17.22H102.326V18.716H102.414C102.722 18.2027 103.192 17.77 103.822 17.418C104.468 17.0513 105.106 16.868 105.736 16.868C107.408 16.868 108.545 17.5573 109.146 18.936C110.026 17.5573 111.28 16.868 112.908 16.868C114.184 16.868 115.145 17.2787 115.79 18.1C116.436 18.9067 116.758 20.0067 116.758 21.4V28H114.734V21.708C114.734 20.6227 114.536 19.8527 114.14 19.398C113.744 18.9433 113.143 18.716 112.336 18.716C111.544 18.716 110.884 19.0533 110.356 19.728C109.843 20.4027 109.586 21.1727 109.586 22.038V28H107.562V21.708C107.562 20.6227 107.364 19.8527 106.968 19.398C106.572 18.9433 105.971 18.716 105.164 18.716C104.372 18.716 103.712 19.0533 103.184 19.728C102.671 20.4027 102.414 21.1727 102.414 22.038V28H100.39ZM124.009 28.352C122.381 28.352 121.053 27.8093 120.027 26.724C119.015 25.6387 118.509 24.2673 118.509 22.61C118.509 21.0407 119 19.6913 119.983 18.562C120.98 17.4327 122.249 16.868 123.789 16.868C125.387 16.868 126.663 17.3887 127.617 18.43C128.585 19.4713 129.069 20.8647 129.069 22.61L129.047 22.984H120.533C120.591 24.0693 120.951 24.9273 121.611 25.558C122.285 26.1887 123.07 26.504 123.965 26.504C125.417 26.504 126.399 25.888 126.913 24.656L128.717 25.404C128.365 26.24 127.785 26.944 126.979 27.516C126.172 28.0733 125.182 28.352 124.009 28.352ZM126.913 21.312C126.869 20.696 126.583 20.1093 126.055 19.552C125.541 18.9947 124.771 18.716 123.745 18.716C122.997 18.716 122.344 18.9507 121.787 19.42C121.244 19.8893 120.87 20.52 120.665 21.312H126.913ZM136.105 28V12.248H140.923C143.343 12.248 145.279 12.9813 146.731 14.448C148.183 15.9 148.909 17.792 148.909 20.124C148.909 22.456 148.183 24.3553 146.731 25.822C145.279 27.274 143.343 28 140.923 28H136.105ZM138.129 26.064H140.923C142.742 26.064 144.179 25.5433 145.235 24.502C146.306 23.4607 146.841 22.0013 146.841 20.124C146.841 18.2613 146.306 16.8093 145.235 15.768C144.179 14.712 142.742 14.184 140.923 14.184H138.129V26.064ZM155.526 28.352C153.898 28.352 152.571 27.8093 151.544 26.724C150.532 25.6387 150.026 24.2673 150.026 22.61C150.026 21.0407 150.517 19.6913 151.5 18.562C152.497 17.4327 153.766 16.868 155.306 16.868C156.905 16.868 158.181 17.3887 159.134 18.43C160.102 19.4713 160.586 20.8647 160.586 22.61L160.564 22.984H152.05C152.109 24.0693 152.468 24.9273 153.128 25.558C153.803 26.1887 154.587 26.504 155.482 26.504C156.934 26.504 157.917 25.888 158.43 24.656L160.234 25.404C159.882 26.24 159.303 26.944 158.496 27.516C157.689 28.0733 156.699 28.352 155.526 28.352ZM158.43 21.312C158.386 20.696 158.1 20.1093 157.572 19.552C157.059 18.9947 156.289 18.716 155.262 18.716C154.514 18.716 153.861 18.9507 153.304 19.42C152.761 19.8893 152.387 20.52 152.182 21.312H158.43ZM165.434 28L161.078 17.22H163.278L166.446 25.58H166.49L169.702 17.22H171.858L167.458 28H165.434ZM177.741 28.352C176.113 28.352 174.786 27.8093 173.759 26.724C172.747 25.6387 172.241 24.2673 172.241 22.61C172.241 21.0407 172.732 19.6913 173.715 18.562C174.712 17.4327 175.981 16.868 177.521 16.868C179.12 16.868 180.396 17.3887 181.349 18.43C182.317 19.4713 182.801 20.8647 182.801 22.61L182.779 22.984H174.265C174.324 24.0693 174.683 24.9273 175.343 25.558C176.018 26.1887 176.802 26.504 177.697 26.504C179.149 26.504 180.132 25.888 180.645 24.656L182.449 25.404C182.097 26.24 181.518 26.944 180.711 27.516C179.904 28.0733 178.914 28.352 177.741 28.352ZM180.645 21.312C180.601 20.696 180.315 20.1093 179.787 19.552C179.274 18.9947 178.504 18.716 177.477 18.716C176.729 18.716 176.076 18.9507 175.519 19.42C174.976 19.8893 174.602 20.52 174.397 21.312H180.645ZM186.676 28H184.652V12.248H186.676V28ZM189.981 18.518C191.022 17.418 192.349 16.868 193.963 16.868C195.576 16.868 196.903 17.418 197.945 18.518C198.986 19.6033 199.507 20.9673 199.507 22.61C199.507 24.2527 198.986 25.624 197.945 26.724C196.903 27.8093 195.576 28.352 193.963 28.352C192.349 28.352 191.022 27.8093 189.981 26.724C188.939 25.624 188.419 24.2527 188.419 22.61C188.419 20.9673 188.939 19.6033 189.981 18.518ZM191.477 25.448C192.181 26.152 193.009 26.504 193.963 26.504C194.916 26.504 195.737 26.152 196.427 25.448C197.131 24.7293 197.483 23.7833 197.483 22.61C197.483 21.4367 197.131 20.498 196.427 19.794C195.737 19.0753 194.916 18.716 193.963 18.716C193.009 18.716 192.181 19.0753 191.477 19.794C190.787 20.498 190.443 21.4367 190.443 22.61C190.443 23.7833 190.787 24.7293 191.477 25.448ZM206.848 28.352C206.027 28.352 205.286 28.176 204.626 27.824C203.981 27.472 203.497 27.032 203.174 26.504H203.086L203.174 28V32.752H201.15V17.22H203.086V18.716H203.174C203.497 18.188 203.981 17.748 204.626 17.396C205.286 17.044 206.027 16.868 206.848 16.868C208.241 16.868 209.444 17.418 210.456 18.518C211.468 19.618 211.974 20.982 211.974 22.61C211.974 24.238 211.468 25.602 210.456 26.702C209.444 27.802 208.241 28.352 206.848 28.352ZM206.518 26.504C207.457 26.504 208.263 26.152 208.938 25.448C209.613 24.7293 209.95 23.7833 209.95 22.61C209.95 21.4367 209.613 20.498 208.938 19.794C208.263 19.0753 207.457 18.716 206.518 18.716C205.565 18.716 204.751 19.068 204.076 19.772C203.416 20.476 203.086 21.422 203.086 22.61C203.086 23.798 203.416 24.744 204.076 25.448C204.751 26.152 205.565 26.504 206.518 26.504ZM218.712 28.352C217.084 28.352 215.756 27.8093 214.73 26.724C213.718 25.6387 213.212 24.2673 213.212 22.61C213.212 21.0407 213.703 19.6913 214.686 18.562C215.683 17.4327 216.952 16.868 218.492 16.868C220.09 16.868 221.366 17.3887 222.32 18.43C223.288 19.4713 223.772 20.8647 223.772 22.61L223.75 22.984H215.236C215.294 24.0693 215.654 24.9273 216.314 25.558C216.988 26.1887 217.773 26.504 218.668 26.504C220.12 26.504 221.102 25.888 221.616 24.656L223.42 25.404C223.068 26.24 222.488 26.944 221.682 27.516C220.875 28.0733 219.885 28.352 218.712 28.352ZM221.616 21.312C221.572 20.696 221.286 20.1093 220.758 19.552C220.244 18.9947 219.474 18.716 218.448 18.716C217.7 18.716 217.047 18.9507 216.49 19.42C215.947 19.8893 215.573 20.52 215.368 21.312H221.616ZM227.647 28H225.623V17.22H227.559V18.98H227.647C227.852 18.3933 228.27 17.9093 228.901 17.528C229.546 17.1467 230.169 16.956 230.771 16.956C231.372 16.956 231.878 17.044 232.289 17.22L231.519 19.112C231.255 19.0093 230.895 18.958 230.441 18.958C229.707 18.958 229.055 19.2513 228.483 19.838C227.925 20.41 227.647 21.1653 227.647 22.104V28ZM237.189 28.352C235.986 28.352 234.989 28.0587 234.197 27.472C233.42 26.8853 232.848 26.152 232.481 25.272L234.285 24.524C234.857 25.8733 235.832 26.548 237.211 26.548C237.842 26.548 238.355 26.4087 238.751 26.13C239.162 25.8513 239.367 25.4847 239.367 25.03C239.367 24.326 238.876 23.8493 237.893 23.6L235.715 23.072C235.026 22.896 234.373 22.566 233.757 22.082C233.141 21.5833 232.833 20.916 232.833 20.08C232.833 19.1267 233.251 18.3567 234.087 17.77C234.938 17.1687 235.942 16.868 237.101 16.868C238.054 16.868 238.905 17.088 239.653 17.528C240.401 17.9533 240.936 18.5693 241.259 19.376L239.499 20.102C239.103 19.1487 238.282 18.672 237.035 18.672C236.434 18.672 235.928 18.7967 235.517 19.046C235.106 19.2953 234.901 19.6327 234.901 20.058C234.901 20.674 235.378 21.092 236.331 21.312L238.465 21.818C239.477 22.0527 240.225 22.456 240.709 23.028C241.193 23.6 241.435 24.2453 241.435 24.964C241.435 25.932 241.039 26.7387 240.247 27.384C239.455 28.0293 238.436 28.352 237.189 28.352Z" fill="#5F6368"/>
</svg>

<svg xmlns="http://www.w3.org/2000/svg" width="190" height="36" fill="none" viewBox="52 2 190 36"><defs/><path fill="#5F6368" d="M61 28.35A7.92 7.92 0 0155.17 26a7.97 7.97 0 01-2.36-5.88c0-2.34.79-4.3 2.36-5.87A7.92 7.92 0 0161 11.9c2.37 0 4.3.85 5.78 2.57l-1.4 1.36a5.31 5.31 0 00-4.38-2 6 6 0 00-4.36 1.74 6.12 6.12 0 00-1.76 4.55c0 1.88.59 3.4 1.76 4.56A6 6 0 0061 26.42c1.89 0 3.5-.77 4.84-2.3l1.4 1.42a7.79 7.79 0 01-2.7 2.06c-1.09.5-2.27.75-3.54.75zm10.07-16.1v4.97l-.09 1.5h.09c.3-.52.75-.95 1.38-1.3.64-.37 1.31-.55 2.03-.55 1.33 0 2.35.4 3.06 1.23a4.9 4.9 0 011.05 3.3V28h-2.02v-6.3c0-1.99-.89-2.98-2.66-2.98-.84 0-1.52.33-2.05 1-.53.67-.8 1.44-.8 2.32V28h-2.02V12.25h2.03zM82.99 28h-2.02V17.22h1.93v1.76h.1c.2-.59.62-1.07 1.25-1.45a3.68 3.68 0 013.38-.31l-.77 1.9c-.26-.11-.62-.16-1.07-.16-.74 0-1.39.3-1.96.88a3.1 3.1 0 00-.84 2.26V28zm6.25-9.48a5.24 5.24 0 013.98-1.65c1.62 0 2.94.55 3.98 1.65a5.67 5.67 0 011.57 4.09c0 1.64-.52 3.01-1.57 4.11a5.28 5.28 0 01-3.98 1.63 5.28 5.28 0 01-3.98-1.63 5.75 5.75 0 01-1.56-4.11c0-1.64.52-3 1.56-4.1zm1.5 6.93a3.4 3.4 0 004.95 0 3.88 3.88 0 001.05-2.84 3.8 3.8 0 00-1.05-2.82 3.37 3.37 0 00-4.95 0 3.85 3.85 0 00-1.04 2.82c0 1.17.35 2.12 1.04 2.84zm9.65 2.55V17.22h1.94v1.5h.08c.31-.52.78-.95 1.41-1.3a3.86 3.86 0 011.92-.55c1.67 0 2.8.69 3.4 2.07a4.21 4.21 0 013.77-2.07c1.27 0 2.23.4 2.88 1.23.65.8.97 1.9.97 3.3V28h-2.03v-6.3c0-1.08-.2-1.85-.59-2.3-.4-.46-1-.68-1.8-.68s-1.46.33-1.98 1a3.72 3.72 0 00-.77 2.32V28h-2.03v-6.3c0-1.08-.2-1.85-.6-2.3-.39-.46-.99-.68-1.8-.68-.79 0-1.45.33-1.98 1a3.72 3.72 0 00-.77 2.32V28h-2.02zm23.62.35a5.23 5.23 0 01-3.98-1.63 5.8 5.8 0 01-1.52-4.11c0-1.57.49-2.92 1.47-4.05 1-1.13 2.27-1.7 3.8-1.7 1.6 0 2.88.53 3.84 1.57a5.9 5.9 0 011.45 4.18l-.02.37h-8.52a3.68 3.68 0 001.08 2.58c.67.63 1.46.94 2.36.94 1.45 0 2.43-.61 2.94-1.84l1.8.74a4.9 4.9 0 01-1.73 2.12c-.8.55-1.8.83-2.97.83zm2.9-7.04a2.85 2.85 0 00-.85-1.76c-.52-.56-1.29-.83-2.31-.83-.75 0-1.4.23-1.96.7-.55.47-.92 1.1-1.13 1.9h6.25zm9.2 6.69V12.25h4.81c2.42 0 4.36.73 5.81 2.2a7.68 7.68 0 012.18 5.67c0 2.34-.73 4.24-2.18 5.7-1.45 1.45-3.39 2.18-5.8 2.18h-4.83zm2.02-1.94h2.8c1.81 0 3.25-.52 4.3-1.56 1.08-1.04 1.61-2.5 1.61-4.38 0-1.86-.53-3.31-1.6-4.35a5.83 5.83 0 00-4.32-1.59h-2.8v11.88zm17.4 2.3a5.24 5.24 0 01-3.99-1.64 5.8 5.8 0 01-1.51-4.11c0-1.57.49-2.92 1.47-4.05 1-1.13 2.27-1.7 3.8-1.7 1.6 0 2.88.53 3.83 1.57a5.9 5.9 0 011.46 4.18l-.03.37h-8.51a3.68 3.68 0 001.08 2.58c.67.63 1.46.94 2.35.94 1.45 0 2.44-.61 2.95-1.84l1.8.74a4.9 4.9 0 01-1.73 2.12c-.81.55-1.8.83-2.97.83zm2.9-7.05a2.85 2.85 0 00-.86-1.76c-.51-.56-1.28-.83-2.3-.83-.76 0-1.4.23-1.97.7-.54.47-.91 1.1-1.12 1.9h6.25zm7 6.69l-4.35-10.78h2.2l3.17 8.36h.04l3.21-8.36h2.16L167.46 28h-2.03zm12.31.35a5.24 5.24 0 01-3.98-1.63 5.8 5.8 0 01-1.52-4.11c0-1.57.5-2.92 1.47-4.05 1-1.13 2.27-1.7 3.81-1.7 1.6 0 2.88.53 3.83 1.57a5.9 5.9 0 011.45 4.18l-.02.37h-8.52a3.68 3.68 0 001.08 2.58c.68.63 1.46.94 2.36.94 1.45 0 2.43-.61 2.95-1.84l1.8.74a4.9 4.9 0 01-1.74 2.12c-.8.55-1.8.83-2.97.83zm2.9-7.04a2.85 2.85 0 00-.85-1.76c-.52-.56-1.29-.83-2.31-.83-.75 0-1.4.23-1.96.7-.54.47-.92 1.1-1.12 1.9h6.25zm6.04 6.69h-2.03V12.25h2.03V28zm3.3-9.48a5.24 5.24 0 013.98-1.65c1.62 0 2.94.55 3.98 1.65a5.68 5.68 0 011.57 4.09c0 1.64-.52 3.01-1.56 4.11a5.28 5.28 0 01-3.99 1.63 5.28 5.28 0 01-3.98-1.63 5.75 5.75 0 01-1.56-4.11c0-1.64.52-3 1.56-4.1zm1.5 6.93a3.4 3.4 0 002.48 1.05c.96 0 1.78-.35 2.47-1.05a3.88 3.88 0 001.05-2.84 3.8 3.8 0 00-1.05-2.82 3.37 3.37 0 00-4.95 0 3.85 3.85 0 00-1.04 2.82c0 1.17.35 2.12 1.04 2.84zm15.37 2.9c-.82 0-1.56-.17-2.22-.53a3.76 3.76 0 01-1.46-1.32h-.08l.08 1.5v4.75h-2.02V17.22h1.94v1.5h.08c.33-.53.81-.97 1.46-1.32.66-.36 1.4-.53 2.22-.53 1.4 0 2.6.55 3.6 1.65a5.82 5.82 0 011.52 4.09c0 1.63-.5 3-1.51 4.1a4.74 4.74 0 01-3.61 1.64zm-.33-1.85c.94 0 1.74-.35 2.42-1.05a3.98 3.98 0 001.01-2.84 3.9 3.9 0 00-1.01-2.82 3.2 3.2 0 00-2.42-1.07c-.96 0-1.77.35-2.44 1.05-.66.7-1 1.65-1 2.84s.34 2.13 1 2.84c.67.7 1.48 1.05 2.44 1.05zm12.2 1.85a5.23 5.23 0 01-3.99-1.63 5.8 5.8 0 01-1.52-4.11c0-1.57.5-2.92 1.48-4.05 1-1.13 2.26-1.7 3.8-1.7 1.6 0 2.88.53 3.83 1.57a5.9 5.9 0 011.45 4.18l-.02.37h-8.51a3.68 3.68 0 001.07 2.58c.68.63 1.46.94 2.36.94 1.45 0 2.43-.61 2.95-1.84l1.8.74a4.9 4.9 0 01-1.74 2.12c-.8.55-1.8.83-2.97.83zm2.9-7.04a2.85 2.85 0 00-.86-1.76c-.52-.56-1.29-.83-2.31-.83-.75 0-1.4.23-1.96.7-.54.47-.92 1.1-1.12 1.9h6.25zm6.03 6.69h-2.03V17.22h1.94v1.76h.09c.2-.59.62-1.07 1.25-1.45a3.67 3.67 0 013.39-.31l-.77 1.9c-.27-.11-.63-.16-1.08-.16-.73 0-1.38.3-1.96.88a3.1 3.1 0 00-.83 2.26V28zm9.54.35c-1.2 0-2.2-.3-3-.88a5.25 5.25 0 01-1.7-2.2l1.8-.75c.57 1.35 1.54 2.03 2.92 2.03.63 0 1.14-.14 1.54-.42.41-.28.62-.65.62-1.1 0-.7-.5-1.18-1.48-1.43l-2.17-.53a5.27 5.27 0 01-1.96-.99 2.44 2.44 0 01-.93-2c0-.95.42-1.72 1.26-2.31.85-.6 1.85-.9 3.01-.9.95 0 1.8.22 2.55.66a3.6 3.6 0 011.6 1.85l-1.75.72c-.4-.95-1.22-1.43-2.47-1.43-.6 0-1.1.13-1.51.38-.41.25-.62.58-.62 1 0 .62.48 1.04 1.43 1.26l2.13.5c1.02.24 1.76.65 2.25 1.22a3 3 0 01-.46 4.36c-.8.64-1.81.96-3.06.96z"/></svg>
